assets/icons/sort-a-s-c.svg

<svg xmlns="http://www.w3.org/2000/svg" viewBox="0 0 16 16" role="presentation" aria-hidden="true"><path d="M12.001 1.33594V14.5026" stroke="currentColor" stroke-width="1.33333" stroke-linecap="round" stroke-linejoin="round" fill="none"/><path d="M2.33398 9.33594H7.66732L2.33398 14.6693H7.66732" stroke="currentColor" stroke-width="1.33333" stroke-linecap="round" stroke-linejoin="round" fill="none"/><path d="M2.33398 6.66927L5.09262 1.33594L7.66732 6.66927" stroke="currentColor" stroke-width="1.33333" stroke-linecap="round" stroke-linejoin="round" fill="none"/><path d="M14.6673 12.0039L12.0007 14.6706L9.33398 12.0039" stroke="currentColor" stroke-width="1.33333" stroke-linecap="round" stroke-linejoin="round" fill="none"/></svg>

<svg xmlns="http://www.w3.org/2000/svg" aria-hidden="true" viewBox="0 0 16 16"><path fill="none" stroke="currentColor" stroke-linecap="round" stroke-linejoin="round" stroke-width="1.333" d="M12.001 1.336v13.167M2.334 9.336h5.333l-5.333 5.333h5.333M2.334 6.67l2.759-5.334 2.574 5.333m7 5.335-2.666 2.667-2.667-2.667"/></svg>
